src/icons/default-wallet-notification.svg

<svg viewBox="0 0 40 40" fill="none" xmlns="http://www.w3.org/2000/svg">
    <path d="M20.1318 35.2637C28.4082 35.2637 35.2637 28.4229 35.2637 20.1318C35.2637 11.8555 28.4082 5 20.1172 5C11.8408 5 5 11.8555 5 20.1318C5 28.4229 11.8555 35.2637 20.1318 35.2637ZM19.3848 28.7891C18.916 28.7891 18.5498 28.5107 18.4619 28.0566L18.0371 26.2988C17.7588 26.1963 17.4658 26.0791 17.2314 25.9766L15.6934 26.8994C15.3271 27.1777 14.8584 27.1191 14.5215 26.7969L13.4814 25.7568C13.1592 25.4199 13.1006 24.9365 13.3789 24.5557L14.3018 23.0322C14.1699 22.7832 14.0674 22.5195 13.9795 22.2412L12.2217 21.8311C11.7529 21.7285 11.4893 21.377 11.4893 20.9082V19.4287C11.4893 18.9746 11.7529 18.6084 12.2217 18.5205L13.9648 18.0957C14.0674 17.7881 14.1846 17.5098 14.2871 17.29L13.3496 15.752C13.0859 15.3564 13.1152 14.9023 13.4521 14.5654L14.5215 13.5254C14.8584 13.2031 15.2686 13.1592 15.6787 13.3936L17.2168 14.3311C17.4658 14.2139 17.7588 14.0967 18.0371 13.9941L18.4619 12.251C18.5498 11.7822 18.916 11.4893 19.3848 11.4893H20.8936C21.3477 11.4893 21.7139 11.7822 21.8018 12.2363L22.2266 14.0088C22.5195 14.1113 22.7979 14.2285 23.0322 14.3457L24.5996 13.3936C25.0098 13.1592 25.4053 13.2178 25.7422 13.5254L26.8115 14.5654C27.1484 14.9023 27.1777 15.3564 26.9141 15.752L25.9766 17.29C26.0791 17.5098 26.1963 17.7881 26.2988 18.0957L28.0566 18.5205C28.5107 18.6084 28.7891 18.9746 28.7891 19.4287V20.9082C28.7891 21.377 28.5107 21.7285 28.0566 21.8311L26.2842 22.2412C26.1963 22.5195 26.0938 22.7832 25.9766 23.0322L26.8848 24.5557C27.1777 24.9365 27.1045 25.4199 26.7822 25.7568L25.7422 26.7969C25.4199 27.1191 24.9512 27.1777 24.5703 26.8994L23.0322 25.9766C22.7979 26.0791 22.5195 26.1963 22.2266 26.2988L21.8018 28.0566C21.7139 28.5107 21.3477 28.7891 20.8936 28.7891H19.3848ZM20.1318 23.0029C21.7139 23.0029 23.0029 21.6992 23.0029 20.1318C23.0029 18.5791 21.7139 17.29 20.1318 17.29C18.5645 17.29 17.2754 18.5791 17.2754 20.1318C17.2754 21.6992 18.5645 23.0029 20.1318 23.0029Z" fill="white"/>
</svg>

<svg viewBox="0 0 40 40" fill="none" xmlns="http://www.w3.org/2000/svg"><path d="M20.132 35.264c8.276 0 15.132-6.841 15.132-15.132C35.264 11.855 28.408 5 20.117 5 11.841 5 5 11.855 5 20.132c0 8.29 6.855 15.132 15.132 15.132zm-.747-6.475c-.469 0-.835-.278-.923-.732l-.425-1.758c-.278-.103-.571-.22-.806-.322l-1.538.922c-.366.279-.835.22-1.171-.102l-1.04-1.04c-.323-.337-.381-.82-.103-1.201l.923-1.524a4.704 4.704 0 0 1-.322-.79l-1.758-.41c-.47-.104-.733-.455-.733-.924v-1.48c0-.453.264-.82.733-.908l1.743-.424c.102-.308.22-.586.322-.806l-.937-1.538c-.264-.396-.235-.85.102-1.187l1.07-1.04c.336-.322.747-.366 1.157-.131l1.538.937c.249-.117.542-.234.82-.337l.425-1.743c.088-.469.454-.762.923-.762h1.509a.9.9 0 0 1 .908.747l.425 1.773c.293.102.57.22.805.337l1.568-.952c.41-.235.805-.176 1.142.131l1.07 1.04c.336.337.366.791.102 1.187l-.937 1.538c.102.22.22.498.322.806l1.758.424c.454.088.732.455.732.909v1.48c0 .468-.278.82-.732.922l-1.773.41c-.088.279-.19.542-.307.791l.908 1.524c.293.38.22.864-.103 1.2l-1.04 1.04c-.322.323-.79.382-1.172.103l-1.538-.922c-.234.102-.512.22-.805.322l-.425 1.758c-.088.454-.454.732-.908.732h-1.51zm.747-5.786a2.885 2.885 0 0 0 2.87-2.871c0-1.553-1.288-2.842-2.87-2.842-1.568 0-2.857 1.29-2.857 2.842 0 1.567 1.29 2.87 2.857 2.87z" fill="#fff"/></svg>
